X:25
T:The Old Triangle
R:jig
C:Paul S. Cranford
O:Cape Breton Island
S:http://www.cranfordpub.com
D:currently unrecorded
B:currently unpublished in book form
Z:psc, (updated 9/17/04)
N:
H:                                                        copyrights Cranford Publications, SOCAN
L:1/8
Q:300
M:6/8
K:Bb
B,DF GEE|AFA ABc|Bbg fdB|cAF EDC|
B,DF GEE|AFA ABc|Bbg fdB|cAF B2 z:|
|:fdd dba|gfd cAF|EGe dcB|ABc ede|
[1fdd dba|gfd cAF|EGe dcB|AFA B2 z:|
[2fdb fdB|ecA BFD|EGe dcB|AFA B2 z|]
